X:1
T:Stand Like Caleb
T:Edwin Barnes
T:Stand Like Caleb
T:Public Domain
T:Public Domain
C:Edwin Barnes
Z:Public Domain
%%score ( 1 2 ) ( 3 4 )
L:1/8
M:4/4
K:Ab
V:1 treble 
V:2 treble 
V:3 bass 
V:4 bass 
V:1
 A2 E2 A2 E2 | [EA][EA][EB][EB] [Ec]4 | [Ec]2 [Ec]2 [Ec][EB][EA][Ec] | [Ec]4 [EB]2 z2 | %4
w: 1.~Stand like Ca- leb,|pose; Vic- t’ry’s key- note|is be- liev- ing; There’s no|dan- ger|
w: 2.~Are there gi- ants|way? Are there ci- ties|“walled to heav- en”? Glor- ious|vic- t’ry|
w: 3.~There’s a land with|blest; Why be faith- less|and faint- heart- ed? On Je-|ho- vah’s|
 A2 E2 A2 E2 | [EB][EB][Ec][_Gc] [Fd]4 | [Ec]2 [Ec]2 [Ec][EB][EA][Ec] | [DB]4 [CA]2 z2 || %8
w: from ten thou- sand|y pow’r re- ceiv- ing.|||
w: shall be ours each|by whom ’tis giv- en.|Stand like Ca- leb! fear no|foe, Trust,|
w: strong as- sur- ance|is now de- part- ed.|||
"^Refrain" F2 G2 A A2 z | [EB]2 [Ec]2 [Ed]2 z2 | [Ec]2 [=Ec]2 [Fc][Fc][Fc][Fc] | %11
w: |||
w: ye doubt- ing, in|God is lead-|ing, for- ward go, Ne- ver|
w: |||
 [F=d]2 [Ad]2 [Ge]4 | [Gd]2 [GB]2 [Bd] [Bd]3 | [Ac]2 [_Gc]2 [Fd]4 | [Ec]2 [Ec]2 [Ec][EB][EA][Ec] | %15
w: ||||
w: fal- ter in|the cause of right.|||
w: ||||
 [DB]3 [CA] [CA]4 |] %16
w: |
w: |
w: |
V:2
 A2 E2 A2 E2 | x8 | x8 | x8 | A2 E2 A2 E2 | x8 | x8 | x8 || F2 G2 A A2 x | x8 | x8 | x8 | x8 | x8 | %14
w: tho’ the world op-||||foes, God’s al- might-||||||||||
w: in the up- ward||||day, Trust- ing God||||Je- ho- vah’s might;||||||
w: “milk and hon- ey”||||rest, Sin’s de- fense||||||||||
 x8 | x8 |] %16
w: ||
w: ||
w: ||
V:3
 A,2 E,2 A,2 E,2 | [C,A,][C,A,][E,G,][E,G,] A,4 | A,2 A,2 A,[E,G,][C,A,][A,,A,] | %3
 [E,A,]4 [E,G,]2 z2 | A,2 E,2 A,2 E,2 | [E,G,][E,G,]A,A, [D,A,]4 | %6
 [E,A,]2 [E,A,]2 [E,A,][E,D][E,C][E,A,] | [E,G,]4 [A,,A,]2 z2 || F,2 G,2 A, A,2 z | %9
 [E,G,]2 [E,A,]2 [E,B,]2 z2 | A,2 [G,B,]2 [F,A,][F,A,][F,A,][F,A,] | [B,,B,]2 [B,,B,]2 [E,B,]4 | %12
 [E,B,]2 [E,E]2 [E,E] [E,E]3 | [A,E]2 A,2 [D,A,]4 | [E,A,]2 [E,A,]2 [E,A,][E,D][E,C][E,A,] | %15
 [E,G,]3 [A,,A,] [A,,A,]4 |] %16
V:4
 A,2 E,2 A,2 E,2 | x4 A,4 | A,2 A,2 A, x3 | x8 | A,2 E,2 A,2 E,2 | x2 A,A, x4 | x8 | x8 || %8
 F,2 G,2 A, A,2 x | x8 | A,2 x6 | x8 | x8 | x2 A,2 x4 | x8 | x8 |] %16

